svg/blobs-icons/no-decorations/tier-cake-stand.svg

<svg xmlns="http://www.w3.org/2000/svg" xmlns:xlink="http://www.w3.org/1999/xlink" preserveAspectRatio="xMidYMid" width="217" height="110" viewBox="0 0 217 110"><defs><style>.cls-3{fill:#ff3a2f}.cls-4{fill:#142a3b}.cls-6{fill:#fbb713}.cls-7{fill:#020403;opacity:.35}.cls-8{fill:#020403;opacity:.25}</style></defs><g id="group-26svg"><path d="M195.315 87.493s-173.745.0-173.745.0C9.66 87.493.006 97.147.006 109.056H216.879c0-11.909-9.654-21.563-21.564-21.563z" id="path-1" class="cls-3" fill-rule="evenodd"/><path d="M112.057 90.188s-7.23.0-7.23.0.0-78.049.0-78.049 7.23.0 7.23.0.0 78.049.0 78.049z" id="path-2" class="cls-4" fill-rule="evenodd"/><path d="M145.282 16.182s-73.678.0-73.678.0C70.69 16.182 69.949 15.441 69.949 14.527V1.664c0-.914.741-1.655 1.655-1.655h73.678C146.196.009 146.937.75 146.937 1.664V14.527C146.937 15.441 146.196 16.182 145.282 16.182z" id="path-3" class="cls-4" fill-rule="evenodd"/><path d="M195.953 76.963s0-20.757.0-20.757c0-17.125-14.011-31.137-31.137-31.137H52.069c-17.125.0-31.137 14.012-31.137 31.137V76.963s175.021.0 175.021.0z" id="path-4" class="cls-6" fill-rule="evenodd"/><path d="M4.22 100.505s173.746.0 173.746.0c6.99799999999999.0 13.153 3.387 17.093 8.551h21.82c0-11.909-9.654-21.563-21.564-21.563H21.57c-8.969.0-16.65 5.479-19.901 13.268C2.516 100.661 3.347 100.505 4.22 100.505z" id="path-5" class="cls-7" fill-rule="evenodd"/><path d="M164.816 25.069S164.601 25.069 164.601 25.069C170.538 30.747 174.265 38.718 174.265 47.53 174.265 58.996 164.972 68.289 153.509 68.289H20.932S20.932 76.963 20.932 76.963s175.021.0 175.021.0.0-20.757.0-20.757c0-17.125-14.011-31.137-31.137-31.137z" id="path-6" class="cls-8" fill-rule="evenodd"/></g></svg>

<svg xmlns="http://www.w3.org/2000/svg" xmlns:xlink="http://www.w3.org/1999/xlink" preserveAspectRatio="xMidYMid" width="217" height="110" viewBox="0 0 217 110">
  <defs>
    <style>

      .cls-3 {
        fill: #ff3a2f;
      }

      .cls-4 {
        fill: #142a3b;
      }

      .cls-6 {
        fill: #fbb713;
      }

      .cls-7 {
        fill: #020403;
        opacity: 0.35;
      }

      .cls-8 {
        fill: #020403;
        opacity: 0.25;
      }
    </style>
  </defs>
  <g id="group-26svg">
    <path d="M195.315,87.493 C195.315,87.493 21.570,87.493 21.570,87.493 C9.660,87.493 0.006,97.147 0.006,109.056 C0.006,109.056 216.879,109.056 216.879,109.056 C216.879,97.147 207.225,87.493 195.315,87.493 Z" id="path-1" class="cls-3" fill-rule="evenodd"/>
    <path d="M112.057,90.188 C112.057,90.188 104.827,90.188 104.827,90.188 C104.827,90.188 104.827,12.139 104.827,12.139 C104.827,12.139 112.057,12.139 112.057,12.139 C112.057,12.139 112.057,90.188 112.057,90.188 Z" id="path-2" class="cls-4" fill-rule="evenodd"/>
    <path d="M145.282,16.182 C145.282,16.182 71.604,16.182 71.604,16.182 C70.690,16.182 69.949,15.441 69.949,14.527 C69.949,14.527 69.949,1.664 69.949,1.664 C69.949,0.750 70.690,0.009 71.604,0.009 C71.604,0.009 145.282,0.009 145.282,0.009 C146.196,0.009 146.937,0.750 146.937,1.664 C146.937,1.664 146.937,14.527 146.937,14.527 C146.937,15.441 146.196,16.182 145.282,16.182 Z" id="path-3" class="cls-4" fill-rule="evenodd"/>
    <path d="M195.953,76.963 C195.953,76.963 195.953,56.206 195.953,56.206 C195.953,39.081 181.942,25.069 164.816,25.069 C164.816,25.069 52.069,25.069 52.069,25.069 C34.944,25.069 20.932,39.081 20.932,56.206 C20.932,56.206 20.932,76.963 20.932,76.963 C20.932,76.963 195.953,76.963 195.953,76.963 Z" id="path-4" class="cls-6" fill-rule="evenodd"/>
    <path d="M4.220,100.505 C4.220,100.505 177.966,100.505 177.966,100.505 C184.964,100.505 191.119,103.892 195.059,109.056 C195.059,109.056 216.879,109.056 216.879,109.056 C216.879,97.147 207.225,87.493 195.315,87.493 C195.315,87.493 21.570,87.493 21.570,87.493 C12.601,87.493 4.920,92.972 1.669,100.761 C2.516,100.661 3.347,100.505 4.220,100.505 Z" id="path-5" class="cls-7" fill-rule="evenodd"/>
    <path d="M164.816,25.069 C164.816,25.069 164.601,25.069 164.601,25.069 C170.538,30.747 174.265,38.718 174.265,47.530 C174.265,47.530 174.265,47.530 174.265,47.530 C174.265,58.996 164.972,68.289 153.509,68.289 C153.509,68.289 20.932,68.289 20.932,68.289 C20.932,68.289 20.932,76.963 20.932,76.963 C20.932,76.963 195.953,76.963 195.953,76.963 C195.953,76.963 195.953,56.206 195.953,56.206 C195.953,39.081 181.942,25.069 164.816,25.069 Z" id="path-6" class="cls-8" fill-rule="evenodd"/>
  </g>
</svg>
